dist/svg/u1F524.svg

<?xml version="1.0" encoding="UTF-8"?><svg id="a" xmlns="http://www.w3.org/2000/svg" viewBox="0 0 40 40"><g><rect x="3.5" y="3.5" width="33" height="33" rx="8" ry="8" fill="#e5e8eb"/><g><path d="M14.736,19.209v5.319h-2.033l-.129-.937c-.36,.865-1.456,1.182-2.306,1.182-1.514,0-2.667-.995-2.667-2.378,0-1.571,1.311-2.519,2.854-2.519h2.047v-.479c0-.692-.548-1.096-1.196-1.096-.678,0-1.124,.403-1.168,.865h-2.205c.101-1.485,1.672-2.623,3.431-2.623,2.047,0,3.373,1.052,3.373,2.667Zm-2.234,2.695v-.519h-1.6c-.692,0-1.038,.274-1.038,.851,0,.476,.461,.764,1.024,.764,.822,0,1.615-.303,1.615-1.096Z" fill="#3182f6"/><path d="M24.19,20.77c0,2.624-1.542,4.137-3.373,4.137-1.038,0-1.845-.418-2.35-1.211l-.101,.966h-2.162V13.909h2.306v3.978c.519-.778,1.297-1.211,2.306-1.211,1.831,0,3.373,1.499,3.373,4.094Zm-2.263,0c0-1.441-.62-2.277-1.73-2.277s-1.687,.836-1.687,2.277c0,1.485,.577,2.306,1.687,2.306s1.73-.822,1.73-2.306Z" fill="#3182f6"/><path d="M28.978,16.878c2.076,0,3.488,1.311,3.69,3.171h-2.292c-.086-.735-.562-1.355-1.398-1.355-1.11,0-1.716,.836-1.716,2.292,0,1.47,.606,2.292,1.716,2.292,.836,0,1.311-.62,1.398-1.355h2.292c-.202,1.874-1.615,3.186-3.69,3.186-2.422,0-3.979-1.686-3.979-4.123,0-2.479,1.6-4.108,3.979-4.108Z" fill="#3182f6"/></g></g><rect width="40" height="40" fill="none" opacity="0"/></svg>

<svg id="Layer_1" data-name="Layer 1" xmlns="http://www.w3.org/2000/svg" viewBox="0 0 40 40"><defs><style>.cls-1{fill:#e5e8eb;}.cls-2{fill:#3182f6;}.cls-3{fill:none;opacity:0;}</style></defs><rect class="cls-1" x="3.5" y="3.5" width="33" height="33" rx="8"/><path class="cls-2" d="M14.736,19.209v5.319H12.7l-.129-.937a2.441,2.441,0,0,1-2.307,1.182A2.465,2.465,0,0,1,7.6,22.4a2.608,2.608,0,0,1,2.855-2.519H12.5V19.4a1.1,1.1,0,0,0-1.2-1.1,1.072,1.072,0,0,0-1.168.865h-2.2c.1-1.485,1.672-2.624,3.431-2.624C13.41,16.542,14.736,17.594,14.736,19.209ZM12.5,21.9v-.518H10.9c-.692,0-1.038.273-1.038.85,0,.476.462.764,1.024.764C11.709,23,12.5,22.7,12.5,21.9Z"/><path class="cls-2" d="M24.19,20.77c0,2.624-1.543,4.137-3.373,4.137a2.631,2.631,0,0,1-2.35-1.211l-.1.966H16.2V13.909H18.51v3.978a2.639,2.639,0,0,1,2.307-1.21C22.647,16.677,24.19,18.175,24.19,20.77Zm-2.263,0c0-1.441-.62-2.277-1.73-2.277s-1.687.836-1.687,2.277c0,1.485.577,2.307,1.687,2.307S21.927,22.255,21.927,20.77Z"/><path class="cls-2" d="M28.978,16.878a3.49,3.49,0,0,1,3.691,3.171H30.376a1.4,1.4,0,0,0-1.4-1.355c-1.11,0-1.715.836-1.715,2.292s.6,2.292,1.715,2.292a1.4,1.4,0,0,0,1.4-1.355h2.293a3.492,3.492,0,0,1-3.691,3.186A3.83,3.83,0,0,1,25,20.986,3.818,3.818,0,0,1,28.978,16.878Z"/><rect class="cls-3" width="40" height="40"/></svg>
